assets/courses/logos/ddd.svg

<?xml version="1.0" encoding="UTF-8"?>
<svg width="101px" height="65px" viewBox="0 0 101 65" version="1.1" xmlns="http://www.w3.org/2000/svg" xmlns:xlink="http://www.w3.org/1999/xlink">
    <title>Combined Shape</title>
    <g id="Page-1" stroke="none" stroke-width="1" fill="none" fill-rule="evenodd">
        <g id="producto" transform="translate(-15.000000, -41.000000)" fill="#2C2C2C" fill-rule="nonzero">
            <g id="Group-2" transform="translate(15.000000, 41.000000)">
                <path d="M68.5,0 C86.4492544,0 101,14.5507456 101,32.5 C101,50.4492544 86.4492544,65 68.5,65 C61.8431678,65 55.653781,62.9986288 50.5007258,59.5647729 C45.3470253,62.9983681 39.1572657,65 32.5,65 C14.5507456,65 0,50.4492544 0,32.5 C0,14.5507456 14.5507456,0 32.5,0 C39.1572657,0 45.3470253,2.00163187 50.5002811,5.43589803 C55.653781,2.00137117 61.8431678,0 68.5,0 Z M50.5,5.4355 C41.7589,11.2607 36,21.2077 36,32.4998 C36,43.7919 41.7589,53.739 50.5,59.564 C59.2411,53.739 65,43.7919 65,32.4998 C65,21.2077 59.2411,11.2607 50.5,5.4355 Z M11.4758,36.7951 C11.33412,36.8123 11.202104,36.872636 11.0970064,36.966636 L11.0235,37.0433 C10.9103,37.1812 10.8546,37.3574 10.868,37.5353 C10.87864,37.67762 10.932928,37.812196 11.0221088,37.9214664 L11.0953,37.9985 L11.1006,38.0028 L18.3964,43.9929 C18.5203,44.0945 18.6756,44.15 18.8358,44.15 C18.96404,44.15 19.08908,44.11448 19.1974032,44.0482528 L19.2754,43.9928 L26.5711,38.0028 L26.5713,38.0031 L26.5786,37.9963 C26.7067,37.876 26.7843,37.7116 26.7958,37.5363 C26.8073,37.3609 26.7518,37.1878 26.6405,37.0518 C26.5292,36.9159 26.3704,36.8272 26.1963,36.8039 C26.0221,36.7805 25.8456,36.8242 25.7024,36.926 L25.7022,36.9257 L25.6942,36.9323 L18.8369,42.5617 L11.9797,36.9322 L11.9743,36.9282 C11.8315,36.8213 11.6529,36.7737 11.4758,36.7951 Z M83.641,29.5967 C83.1275,29.5967 82.705398,29.982727 82.6477176,30.4800761 L82.641,30.5967 L82.641,41.0003 L82.6477176,41.1169239 C82.705398,41.614273 83.1275,42.0003 83.641,42.0003 C84.1535714,42.0003 84.5764694,41.614273 84.6342682,41.1169239 L84.641,41.0003 L84.641,30.5967 L84.6342682,30.4800761 C84.5764694,29.982727 84.1535714,29.5967 83.641,29.5967 Z M79.715,32.207 C79.2024286,32.207 78.7795306,32.593027 78.7217318,33.0903761 L78.715,33.207 L78.715,40.9994 L78.7217318,41.1160239 C78.7795306,41.613373 79.2024286,41.9994 79.715,41.9994 C80.2275714,41.9994 80.6504694,41.613373 80.7082682,41.1160239 L80.715,40.9994 L80.715,33.207 L80.7082682,33.0903761 C80.6504694,32.593027 80.2275714,32.207 79.715,32.207 Z M87.715,26.9834 C87.2024286,26.9834 86.7795306,27.369427 86.7217318,27.8667761 L86.715,27.9834 L86.715,40.9983 L86.7217318,41.1149239 C86.7795306,41.612273 87.2024286,41.9983 87.715,41.9983 C88.2275714,41.9983 88.6504694,41.612273 88.7082682,41.1149239 L88.715,40.9983 L88.715,27.9834 L88.7082682,27.8667761 C88.6504694,27.369427 88.2275714,26.9834 87.715,26.9834 Z M75.932,34.8164 C75.4185,34.8164 74.9960531,35.202427 74.9383234,35.6997761 L74.9316,35.8164 L74.9316,40.9975 L74.9383234,41.1141055 C74.9960531,41.6113867 75.4185,41.9975 75.932,41.9975 C76.4445714,41.9975 76.8674694,41.6113867 76.9252682,41.1141055 L76.932,40.9975 L76.932,35.8164 L76.9252682,35.6997761 C76.8674694,35.202427 76.4445714,34.8164 75.932,34.8164 Z M25.6943,32.356 L25.6942,32.3561 L18.8369,37.9855 L11.9796,32.3561 L11.9799,32.3558 L11.9714,32.3498 C11.8282,32.248 11.6517,32.2043 11.4776,32.2277 C11.3034,32.251 11.1446,32.3396 11.0333,32.4756 C10.922,32.6116 10.8665,32.7847 10.878,32.96 C10.8895,33.1354 10.9671,33.2998 11.0953,33.42 L11.095,33.4203 L11.1027,33.4266 L18.3985,39.4167 C18.5225,39.5183 18.6778,39.5738 18.838,39.5738 C18.96624,39.5738 19.091216,39.53828 19.1995648,39.4720528 L19.2776,39.4166 L26.5734,33.4265 C26.6437,33.3686 26.7019,33.2974 26.7447,33.2171 C26.7875,33.1367 26.814,33.0487 26.8228,32.958 C26.8315,32.8674 26.8223,32.7759 26.7957,32.6888 C26.7779667,32.6308 26.7527222,32.5754667 26.7207074,32.5241926 L26.6675,32.4503 C26.5507,32.3091 26.3827,32.22 26.2004,32.2023 C26.018,32.1847 25.8361,32.2399 25.6943,32.356 Z M18.8358,21.85 C18.70764,21.85 18.582616,21.88552 18.474296,21.9517472 L18.3963,22.0072 L11.1026,27.9973 C11.0236,28.0623 10.96,28.144 10.9163,28.2365 C10.8726,28.3291 10.85,28.4301 10.85,28.5324 C10.85,28.6347 10.8726,28.7358 10.9163,28.8283 C10.9454333,28.8899667 10.9834111,28.9468333 11.0289,28.9971519 L11.1027,29.0677 L18.3985,35.0577 C18.5225,35.1593 18.6778,35.2148 18.838,35.2148 C18.96624,35.2148 19.091216,35.17928 19.1995648,35.1130528 L19.2776,35.0576 L26.5713,29.0675 C26.6503,29.0025 26.7139,28.9208 26.7575,28.8283 C26.8012,28.7358 26.8238,28.6347 26.8238,28.5324 C26.8238,28.4301 26.8012,28.3291 26.7575,28.2365 C26.7284333,28.1748333 26.6904778,28.1179667 26.6449963,28.0676481 L26.5711,27.9972 L19.2753,22.0071 C19.1514,21.9055 18.9961,21.85 18.8358,21.85 Z M18.8369,23.4383 L25.0403,28.5324 L18.8369,33.6265 L12.6357,28.5324 L18.8369,23.4383 Z M86.2423083,22.4475232 L86.138,22.5 L74.8666,29.0075 L74.7689666,29.0716286 C74.3671444,29.3702913 74.2442214,29.9293643 74.5006,30.3735 C74.7569786,30.8176357 75.3023816,30.9906816 75.7625025,30.7919953 L75.867,30.7395 L87.138,24.2321 L87.2355765,24.1679514 C87.6371837,23.8692087 87.7602857,23.3101357 87.504,22.866 C87.2477143,22.4218643 86.7017143,22.2489046 86.2423083,22.4475232 Z" id="Combined-Shape"></path>
            </g>
        </g>
    </g>
</svg>

<svg width="101" height="65" xmlns="http://www.w3.org/2000/svg"><path d="M68.5 0C86.45 0 101 14.55 101 32.5S86.45 65 68.5 65a32.349 32.349 0 0 1-18-5.435A32.356 32.356 0 0 1 32.5 65C14.55 65 0 50.45 0 32.5S14.55 0 32.5 0a32.349 32.349 0 0 1 18 5.436A32.346 32.346 0 0 1 68.5 0Zm-18 5.436C41.759 11.26 36 21.207 36 32.5s5.759 21.239 14.5 27.064C59.241 53.739 65 43.792 65 32.5S59.241 11.26 50.5 5.436Zm-39.024 31.36a.694.694 0 0 0-.379.17l-.073.077a.693.693 0 0 0-.002.878l.073.078.006.004 7.295 5.99a.693.693 0 0 0 .801.055l.078-.055 7.296-5.99.008-.007a.693.693 0 0 0-.877-1.07l-.008.006-6.857 5.63-6.857-5.63-.006-.004a.693.693 0 0 0-.498-.133Zm72.165-7.2a1 1 0 0 0-.993.884l-.007.117V41l.007.117a1 1 0 0 0 1.986 0l.007-.117V30.597l-.007-.117a1 1 0 0 0-.993-.883Zm-3.926 2.611a1 1 0 0 0-.993.883l-.007.117v7.792l.007.117a1 1 0 0 0 1.986 0l.007-.117v-7.792l-.007-.117a1 1 0 0 0-.993-.883Zm8-5.224a1 1 0 0 0-.993.884l-.007.116v13.015l.007.117a1 1 0 0 0 1.986 0l.007-.117V27.983l-.007-.116a1 1 0 0 0-.993-.884Zm-11.783 7.833a1 1 0 0 0-.994.884l-.006.116v5.181l.006.117a1 1 0 0 0 1.987 0l.007-.116v-5.182l-.007-.116a1 1 0 0 0-.993-.884Zm-50.238-2.46-6.857 5.63-6.857-5.63-.009-.006a.693.693 0 0 0-.876 1.07l.008.007 7.295 5.99a.693.693 0 0 0 .802.055l.078-.055 7.295-5.99a.695.695 0 0 0 .148-.903l-.053-.074a.693.693 0 0 0-.974-.094ZM18.836 21.85a.693.693 0 0 0-.362.102l-.078.055-7.293 5.99a.693.693 0 0 0-.074 1l.074.07 7.295 5.99a.693.693 0 0 0 .802.056l.078-.055 7.293-5.99a.692.692 0 0 0 .074-1l-.074-.07-7.296-5.99a.693.693 0 0 0-.44-.158Zm0 1.588 6.204 5.094-6.203 5.095-6.201-5.095 6.2-5.094Zm67.406-.99-.104.052-11.271 6.508-.098.064a1 1 0 0 0 .994 1.72l.104-.053 11.271-6.507.098-.064a1 1 0 0 0-.994-1.72Z" fill="#2C2C2C" fill-rule="nonzero"/></svg>
